src/assets/img/icons/duotone-icons/Devices/Cardboard-vr.svg

<?xml version="1.0" encoding="UTF-8"?>
<svg width="24px" height="24px" viewBox="0 0 24 24" version="1.1" xmlns="http://www.w3.org/2000/svg" xmlns:xlink="http://www.w3.org/1999/xlink">
    <!-- Generator: Sketch 52.2 (67145) - http://www.bohemiancoding.com/sketch -->
    <title>Stockholm-icons / Devices / Cardboard-vr</title>
    <desc>Created with Sketch.</desc>
    <g id="Stockholm-icons-/-Devices-/-Cardboard-vr" stroke="none" stroke-width="1" fill="none" fill-rule="evenodd">
        <rect id="bound" x="0" y="0" width="24" height="24"></rect>
        <polygon id="Rectangle" fill="#335EEA" opacity="0.3" points="6 4 18 4 20 6.5 4 6.5"></polygon>
        <path d="M5,6 L19,6 C20.1045695,6 21,6.8954305 21,8 L20.999994,17.0000172 C20.999994,18.1045834 20.1045662,19.0000112 19,19.0000112 C17.4805018,19.0000037 16.4805051,19 16,19 C15,19 14.5,17 12,17 C9.5,17 9.5,19 8,19 C7.31386312,19 6.31387037,19.0000034 5.00002173,19.0000102 L5.00002173,19.0000216 C3.89544593,19.0000273 3.00000569,18.1045963 3,17.0000205 C3,17.000017 3,17.0000136 3,17.0000102 L3,8 C3,6.8954305 3.8954305,6 5,6 Z M8,14 C9.1045695,14 10,13.1045695 10,12 C10,10.8954305 9.1045695,10 8,10 C6.8954305,10 6,10.8954305 6,12 C6,13.1045695 6.8954305,14 8,14 Z M16,14 C17.1045695,14 18,13.1045695 18,12 C18,10.8954305 17.1045695,10 16,10 C14.8954305,10 14,10.8954305 14,12 C14,13.1045695 14.8954305,14 16,14 Z" id="Combined-Shape" fill="#335EEA"></path>
    </g>
</svg>

<svg width="24" height="24" viewBox="0 0 24 24" xmlns="http://www.w3.org/2000/svg"><g fill="none" fill-rule="evenodd"><path d="M0 0h24v24H0z"/><path fill="#335EEA" opacity=".3" d="M6 4h12l2 2.5H4z"/><path d="M5 6h14a2 2 0 012 2v9a2 2 0 01-2 2h-3c-1 0-1.5-2-4-2s-2.5 2-4 2H5a2 2 0 01-2-2V8a2 2 0 012-2zm3 8a2 2 0 100-4 2 2 0 000 4zm8 0a2 2 0 100-4 2 2 0 000 4z" fill="#335EEA"/></g></svg>
